X:1
T:Trompeuse du Pays de la Rance
C:Trad. Penthièvre, fichier ABC par Bernard Loffet
L:1/8
Q:388
M:3/8
K:G
 z2D | [G2G,,2G,2]A | [B2G,,2G,2]c | [B2D,,2D,2]A | [G2G,,2G,2]D | [G2G,,2G,2]A | \
 [B3E,,3E,3] | [A2A,,2A,2]A | [d3D,,3D,3] | z2D | [G2G,,2G,2]A | [B2G,,2G,2]c | [B2D,,2D,2]A | \
 [G2G,,2G,2]D | [G2G,,2G,2]A | [B3E,,3E,3] | [A2D,,2D,2]A | [G3G,,3G,3] | z3 | [B2G,,2G,2]c | \
 [d2G,,2G,2]d | [d2G,,2G,2]e | [d2G,,2G,2]c | [A2D,,2D,2]B | [c3D,,3D,3] | [BD,,D,]cd | \
 [c2D,,2D,2]B | [A2A,,2A,2]G | [A3D,,3D,3] | [A2D,,2D,2]A | [d3G,,3G,3] | z3 | [B2G,,2G,2]c | \
 [d2G,,2G,2]d | [d2G,,2G,2]e | [d2G,,2G,2]c | [A2D,,2D,2]B | [c3D,,3D,3] | [BD,,D,]cd | \
 [c2D,,2D,2]B | [A2A,,2A,2]G | [A3D,,3D,3] | [A2D,,2D,2]A | [G3G,,3G,3] | z3 | \
W:Created with TablEdit http://www.tabledit.com/ by Bernard Loffet
